**kern	**kern
*staff2	*staff1
*I"Organo-m.s.	*I"Organo-m.d.
=1-	=1-
*clefF4	*clefG2
*k[b-e-]	*k[b-e-]
*M2/4	*M2/4
8B-L	8b-L
8FJ	8fJ
8BB-L	8b-L
8FJ	8aJ 8cc
=2	=2
8B-L	8ddL
8AJ	8ccJ
8B-L	8ddL
8cJ	8ee-J
=3	=3
8.dL	8.ffL
16e-Jk	16ggJk
8dL	8ffL
16cL	16ee-L
16B-JJ	16ddJJ
=4	=4
2F	2a 2cc
=5:|!|:	=5:|!|:
8B-L	8ffL
8BB-J	16ddL
.	16ee-JJ
8B-L	8ffL
16e-L	16ggL
16dJJ	16ffJJ
=6	=6
4c	8.ee-L
.	16ddJk
4F	8ee-L
.	16ddL
.	16ccJJ
=7	=7
!!linebreak:original
4B-	8.ddL
.	16ccJk
4BB-	8ddL
.	16ee-L
.	16ffJJ
=8	=8
4F	8.ccL
.	16ddJk
4FF	4a 4cc
=9	=9
8B-L	8b-L
8FJ	8fJ
8BB-L	8b-L
8FJ	8aJ 8cc
=10	=10
8B-L	8ddL
8AJ	8ccJ
8B-L	8ddL
8cJ	8ee-J
=11	=11
8.dL	8.ffL
16cJk	16ee-Jk
4B-	16ddLL
.	16ccJ
.	8ddJ
=12	=12
2BB-	2b-
==:|!	==:|!
*-	*-
!!!COM: Anonim
!!!CDT: [?]
!!!OTL@@LAT: Zawitaj rana jutrzenko
!!!ODT: 
!!!GTL: Przemyśl Organ Book
!!!ARL: Przemyśl Benedictine Monastery 
!!title: @{OTL}, @{GTL}, ed. @{ENC}
!!!pag:
!!!EFL: 
!!!YEM: Creative Commons CC/BY/NC/SA 4.0
!!!ENC: Marcin Konik
!!!END: 2015-03-01
!!!EED: Marcin Konik
!!!EEV: 
!!!ONB: Encoded in vim by Marcin Konik
!!!CharacterEncoding: utf-8
!!!RDF**kern: l=long note in original notation
!!!RDF**kern: i=editorial accidental
!!muse2ps: z14jc180F
